modules/coreui-icons-free/icons/flag-alt.svg

<!-- Generated by IcoMoon.io -->
<svg version="1.1" xmlns="http://www.w3.org/2000/svg" width="24" height="24" viewBox="0 0 24 24">
<title>flag-alt</title>
<path d="M21 2.625h-16.5v-1.875h-1.5v22.5h1.5v-6.375h16.5v-1.746l-3.945-5.379 3.945-5.379zM15.195 9.75l4.125 5.625h-14.82v-11.25h14.82z"></path>
</svg>

<svg xmlns="http://www.w3.org/2000/svg" width="24" height="24" viewBox="0 0 24 24"><path d="M21 2.625H4.5V.75H3v22.5h1.5v-6.375H21v-1.746L17.055 9.75 21 4.371zM15.195 9.75l4.125 5.625H4.5V4.125h14.82z"/></svg>
